X:1
T:024 - Deus É Amor
T:Letra: John Bowring (1792-1872)
T:Trad.: Salomão Luiz Ginsburg (1867-1927)
T:Música: George Coles Stebbins (1846-1945)
M:3/4
L:1/8
Q:1/4=90
K:Bb
V:1
("Bb"F3B) cd | (B3D) FB | ("F7"A3c) GA | "Bb"G2 F4 | ("Bb"B3d) BG | (F3D) FB | ("F"A3B) "C7"Gc | ("F"c2F2-"F7"F2) | ("Bb"F3B) cd | (B3D) FB | ("F7"A3e) GA | "Bb"G2 F4 | (d3f) ed | ("Eb"c3G) AB | ("Bb/F"F3d) "F7"cF | "Bb"B6 || ("Bb"B3d) cB | ("Eb"B2 e2) d2 | ("C7"c3G) cd | ("F"c2F2-"F7"F2) | ("Bb"f3d) cB | ("Eb"G3A) Bc | ("Bb/F"F3d) "F7"cF | "Bb"B6 |]
w: 1.~Deus_ é a-mor._ A_ su_a_ gra-ça Con_quis_tou_ meu_ co_ra_ção;__ Con_ce_deu_me_ vi_da e-ter-na,  Paz_ e_ luz_ e_ sal_va_ção.  Deus_ é a-mor,_ sim, Deus_ é a-mor.__    Deus_ é a-mor,_ sim,_ Deus_ é a-mor.
w: 2.~Deus_ é a-mor._ Eis_ tu_do a-ca-ba Nes_te_ mun_do_ dea_mar_gor;__ Só_ per_du_ra i-nal_te_rá-vel Seu_in_fin_do ee-ter_no a-mor.  
w: 3.~Deus_ é a-mor._ Pois_ cui_da_ sem-pre Do_ seu_ fi_lho_ bom,_ fi_el.__ E_le ins-pi_ra,_ gui_a e li-vra, Co_mo ao po_vo_ deIs__ra-el.  
w: 4.~Deus_ é a-mor._ Vem,_ au_xi_li-a Aes_te_ po_bre_ pe_ca_dor;__ Per_do_a_do,a_go_ra al-me-ja Pro_cla_mar_ o_ teu__a-mor!     
W: 
W: 
W: 1. Deus é amor. A sua graça
W: Conquistou meu coração;
W: Concedeu-me vida eterna, 
W: Paz e luz e salvação.
W: 
W: 2. Deus é amor. Eis tudo acaba
W: Neste mundo de amargor;
W: Só perdura inalterável
W: Seu infindo e eterno amor.
W: 
W: 3. Deus é amor. Pois cuida sempre
W: Do seu filho bom, fiel.
W: Ele inspira, guia e livra,
W: Como ao povo de Israel.
W: 
W: 
W: 
W: 4. Deus é amor. Vem, auxilia
W: A este pobre pecador;
W: Perdoado, agora almeja
W: Proclamar o teu amor!
W: 
W:    (Estribilho)
W:    Deus é amor, sim, Deus é amor.
W:    Deus é amor, sim, Deus é amor.
W:      
W: 





%wordsfont Times-Roman 13.0
%vocalfont Times-Roman 13.0
